images/skills/4-skills-internet-db-md1.svg

<?xml version="1.0" encoding="UTF-8" standalone="no"?>
<svg width="211px" height="163px" viewBox="0 0 211 163" version="1.1" xmlns="http://www.w3.org/2000/svg" xmlns:xlink="http://www.w3.org/1999/xlink" xmlns:sketch="http://www.bohemiancoding.com/sketch/ns">
    <!-- Generator: Sketch 3.2.2 (9983) - http://www.bohemiancoding.com/sketch -->
    <title>internet-database</title>
    <desc>Created with Sketch.</desc>
    <defs></defs>
    <g id="Medium" stroke="none" stroke-width="1" fill="none" fill-rule="evenodd" sketch:type="MSPage">
        <g id="Group" sketch:type="MSLayerGroup" fill="#FFFFFF">
            <g id="internet-database" sketch:type="MSShapeGroup">
                <path d="M105.75119,103.375102 C123.243593,103.375102 142.67619,97.6129262 142.67619,89.1615015 L142.67619,78.7891846 C136.145238,84.9355385 122.282538,89.1615015 105.75119,89.1615015 C89.2198429,89.1615015 75.3571429,84.9355385 68.8261905,78.7891846 L68.8261905,89.1615015 C68.8261905,97.6129262 88.2587881,103.375102 105.75119,103.375102" id="Fill-1"></path>
                <path d="M105.76174,68.6089569 C123.254143,68.6089569 142.669157,62.6546923 142.669157,54.2032677 C142.669157,45.7518431 123.254143,39.9891662 105.76174,39.9891662 C88.2693381,39.9891662 68.8543238,45.7518431 68.8543238,54.2032677 C68.8543238,62.6546923 88.2693381,68.6089569 105.76174,68.6089569" id="Fill-2"></path>
                <path d="M105.75119,84.9355385 C123.243593,84.9355385 142.67619,79.1733631 142.67619,70.7219385 L142.67619,62.4626031 C136.145238,68.6089569 122.282538,72.6428308 105.75119,72.6428308 C89.2198429,72.6428308 75.3571429,68.6089569 68.8261905,62.4626031 L68.8261905,70.7219385 C68.8261905,79.1733631 88.2587881,84.9355385 105.75119,84.9355385" id="Fill-3"></path>
                <path d="M105.75119,121.814665 C123.243593,121.814665 142.67619,116.052489 142.67619,107.601065 L142.67619,97.2287477 C136.145238,103.375102 122.282538,107.601065 105.75119,107.601065 C89.2198429,107.601065 75.3571429,103.375102 68.8261905,97.2287477 L68.8261905,107.601065 C68.8261905,116.052489 88.2587881,121.814665 105.75119,121.814665" id="Fill-4"></path>
                <path d="M108.011905,0 L108.011905,5.55804923 L170.555319,41.4887662 C171.33401,41.93664 171.814286,42.7651815 171.814286,43.6624338 L171.814286,116.970806 C171.814286,117.868058 171.339536,118.6966 170.560845,119.144474 L106.760976,155.798911 C105.9853,156.244277 105.031781,156.244277 104.256105,155.798911 L40.4492024,119.144474 C39.6705119,118.6966 39.1857143,117.868058 39.1857143,116.970806 L39.1857143,43.6624338 C39.1857143,42.7651815 39.6715167,41.9361385 40.4507095,41.4887662 L95.8452429,9.68069538 C97.0479429,8.99007692 98.5842238,9.40334462 99.2760024,10.6040277 C99.967781,11.8047108 99.5492976,13.3374123 98.3465976,14.0280308 L44.2095238,45.1128831 L44.2095238,115.520858 L105.5,150.731868 L166.790476,115.520858 L166.790476,45.1128831 L104.247062,9.18166462 C103.468371,8.73379077 102.988095,7.90524923 102.988095,7.00799692 L102.988095,0 L0,0 L0,163 L211,163 L211,0 L108.011905,0 L108.011905,0 Z M105.75119,35.7637046 C128.818514,35.7637046 146.695238,44.02304 146.695238,54.2032677 L146.695238,107.601065 C146.695238,117.97288 128.818514,126.040628 105.75119,126.040628 C82.684369,126.040628 64.8071429,117.97288 64.8071429,107.601065 L64.8071429,54.2032677 C64.8071429,44.02304 82.684369,35.7637046 105.75119,35.7637046 L105.75119,35.7637046 Z" id="Fill-5"></path>
            </g>
        </g>
    </g>
</svg>

<svg width="211" height="163" viewBox="0 0 211 163" xmlns="http://www.w3.org/2000/svg"><title>internet-database</title><desc>Created with Sketch.</desc><g fill="#fff"><path d="M105.75 103.375c17.494 0 36.926-5.762 36.926-14.213V78.79c-6.53 6.146-20.393 10.372-36.925 10.372-16.53 0-30.393-4.226-36.924-10.373V89.16c0 8.45 19.433 14.213 36.925 14.213"/><path d="M105.762 68.61c17.492 0 36.907-5.955 36.907-14.407 0-8.45-19.416-14.214-36.908-14.214-17.493 0-36.908 5.762-36.908 14.213 0 8.452 19.415 14.406 36.908 14.406"/><path d="M105.75 84.936c17.494 0 36.926-5.763 36.926-14.214v-8.26c-6.53 6.147-20.393 10.18-36.925 10.18-16.53 0-30.393-4.033-36.924-10.18v8.26c0 8.45 19.433 14.214 36.925 14.214"/><path d="M105.75 121.815c17.494 0 36.926-5.763 36.926-14.214V97.23c-6.53 6.145-20.393 10.37-36.925 10.37-16.53 0-30.393-4.225-36.924-10.37v10.37c0 8.452 19.433 14.215 36.925 14.215"/><path d="M108.012 0v5.558l62.543 35.93c.78.45 1.26 1.277 1.26 2.174v73.31c0 .896-.475 1.725-1.254 2.172l-63.8 36.655c-.775.444-1.728.444-2.504 0L40.45 119.143c-.78-.447-1.264-1.276-1.264-2.173V43.663c0-.897.486-1.726 1.265-2.173L95.846 9.68c1.203-.69 2.74-.277 3.43.924.693 1.2.274 2.733-.928 3.424L44.21 45.113v70.408l61.29 35.212 61.29-35.21V45.11l-62.543-35.93c-.78-.448-1.26-1.277-1.26-2.174V0H0v163h211V0H108.012zm-2.26 35.764c23.067 0 40.943 8.26 40.943 18.44V107.6c0 10.373-17.876 18.44-40.944 18.44-23.066 0-40.943-8.067-40.943-18.44V54.204c0-10.18 17.877-18.44 40.944-18.44z"/></g></svg>
